src/resources/assets/handshake.svg

<svg xmlns="http://www.w3.org/2000/svg" width="16" height="16"><path d="M 8.203125 2.003906 C 8.054688 2.003906 7.917969 2.074219 7.824219 2.179688 L 7.773438 2.214844 C 6.269531 1.773438 4.5625 2.117188 3.371094 3.242188 C 2.316406 4.242188 1.910156 5.625 2.160156 6.917969 L 2.144531 6.929688 L 1.472656 7.566406 C 0.894531 8.113281 0.894531 9 1.472656 9.546875 C 1.816406 9.871094 2.285156 10.003906 2.730469 9.941406 C 2.792969 10.175781 2.921875 10.394531 3.117188 10.578125 C 3.378906 10.824219 3.710938 10.960938 4.054688 10.984375 C 4.078125 11.308594 4.222656 11.625 4.484375 11.871094 C 4.746094 12.117188 5.078125 12.253906 5.421875 12.277344 C 5.445312 12.601562 5.589844 12.917969 5.851562 13.164062 C 6.382812 13.667969 7.214844 13.707031 7.796875 13.289062 L 8.125 13.601562 C 8.707031 14.148438 9.648438 14.148438 10.230469 13.601562 C 10.492188 13.351562 10.636719 13.039062 10.660156 12.71875 C 11 12.691406 11.332031 12.558594 11.59375 12.3125 C 11.855469 12.066406 11.996094 11.75 12.023438 11.425781 C 12.359375 11.402344 12.683594 11.265625 12.941406 11.023438 C 13.144531 10.832031 13.277344 10.597656 13.335938 10.355469 C 13.777344 10.40625 14.234375 10.273438 14.570312 9.957031 C 15.152344 9.410156 15.152344 8.523438 14.570312 7.976562 L 13.976562 7.414062 L 14.089844 6.996094 C 14.355469 6.019531 14.222656 4.988281 13.722656 4.109375 C 12.988281 2.804688 11.5625 2.007812 10.03125 2.007812 L 9.015625 2.007812 C 8.96875 2.007812 8.921875 2.003906 8.875 2.003906 Z M 12.578125 7.460938 L 13.0625 7.941406 C 13.09375 7.972656 13.128906 7.996094 13.164062 8.019531 L 13.84375 8.664062 C 14.023438 8.828125 14.023438 9.101562 13.84375 9.269531 C 13.667969 9.4375 13.382812 9.4375 13.203125 9.269531 L 12.066406 8.191406 C 11.863281 8 11.539062 8 11.339844 8.191406 L 11.328125 8.203125 C 11.125 8.390625 11.125 8.699219 11.328125 8.886719 L 12.214844 9.730469 C 12.394531 9.894531 12.394531 10.167969 12.214844 10.335938 C 12.054688 10.488281 11.800781 10.503906 11.621094 10.375 C 11.417969 10.230469 11.128906 10.25 10.949219 10.421875 C 10.765625 10.59375 10.75 10.867188 10.90625 11.058594 C 11.042969 11.226562 11.03125 11.46875 10.867188 11.625 C 10.703125 11.777344 10.445312 11.789062 10.265625 11.660156 C 10.0625 11.507812 9.769531 11.523438 9.585938 11.695312 C 9.402344 11.871094 9.382812 12.144531 9.542969 12.339844 C 9.683594 12.507812 9.667969 12.757812 9.503906 12.914062 C 9.324219 13.082031 9.03125 13.082031 8.851562 12.914062 L 8.53125 12.609375 L 8.617188 12.53125 C 9.195312 11.984375 9.195312 11.097656 8.617188 10.550781 C 8.355469 10.304688 8.019531 10.167969 7.679688 10.144531 C 7.652344 9.820312 7.511719 9.503906 7.25 9.257812 C 6.988281 9.007812 6.652344 8.875 6.3125 8.851562 C 6.285156 8.527344 6.144531 8.210938 5.882812 7.964844 C 5.539062 7.640625 5.070312 7.507812 4.625 7.566406 C 4.558594 7.335938 4.429688 7.113281 4.238281 6.929688 C 3.933594 6.644531 3.53125 6.507812 3.136719 6.523438 C 3.027344 5.597656 3.347656 4.636719 4.097656 3.929688 C 4.804688 3.261719 5.75 2.953125 6.679688 3.007812 L 5.582031 3.796875 C 4.871094 4.308594 4.738281 5.292969 5.289062 5.976562 C 5.824219 6.644531 6.816406 6.777344 7.507812 6.273438 L 8.855469 5.304688 L 10.296875 5.304688 Z M 6.167969 4.609375 L 8.390625 3.003906 L 8.875 3.003906 C 8.910156 3.003906 8.941406 3.003906 8.976562 3.007812 C 8.984375 3.007812 8.992188 3.007812 9 3.007812 L 10.03125 3.007812 C 11.222656 3.007812 12.304688 3.628906 12.851562 4.601562 C 13.203125 5.222656 13.308594 5.941406 13.152344 6.625 L 10.941406 4.449219 C 10.847656 4.355469 10.71875 4.304688 10.589844 4.304688 L 8.695312 4.304688 C 8.589844 4.304688 8.488281 4.335938 8.402344 4.398438 L 6.925781 5.464844 C 6.660156 5.652344 6.273438 5.601562 6.066406 5.347656 C 5.878906 5.109375 5.921875 4.785156 6.167969 4.609375 Z M 7.25 11.234375 C 7.425781 11.070312 7.714844 11.070312 7.890625 11.238281 C 8.066406 11.40625 8.066406 11.675781 7.890625 11.84375 L 7.21875 12.476562 C 7.042969 12.644531 6.753906 12.644531 6.578125 12.476562 C 6.398438 12.3125 6.398438 12.039062 6.578125 11.871094 Z M 6.523438 10.546875 L 5.851562 11.183594 C 5.675781 11.351562 5.386719 11.351562 5.210938 11.183594 C 5.035156 11.019531 5.03125 10.757812 5.199219 10.589844 L 5.210938 10.578125 L 5.882812 9.945312 L 5.890625 9.933594 C 6.070312 9.777344 6.347656 9.78125 6.523438 9.945312 C 6.699219 10.109375 6.699219 10.378906 6.523438 10.546875 Z M 5.15625 9.257812 L 4.484375 9.890625 L 4.472656 9.902344 C 4.296875 10.058594 4.015625 10.054688 3.84375 9.890625 C 3.664062 9.722656 3.664062 9.453125 3.84375 9.285156 L 4.515625 8.652344 C 4.691406 8.484375 4.976562 8.484375 5.15625 8.652344 C 5.328125 8.816406 5.332031 9.078125 5.164062 9.246094 Z M 3.511719 8.222656 L 2.839844 8.859375 C 2.664062 9.027344 2.375 9.027344 2.199219 8.859375 C 2.023438 8.691406 2.023438 8.421875 2.199219 8.253906 L 2.871094 7.617188 C 3.046875 7.449219 3.335938 7.449219 3.511719 7.617188 C 3.6875 7.785156 3.6875 8.058594 3.511719 8.222656 Z M 3.511719 8.222656" fill="#ddd"/></svg>

<svg xmlns="http://www.w3.org/2000/svg" width="16" height="16"><path d="M8.203 2.004a.512.512 0 00-.379.176l-.05.035C6.27 1.773 4.561 2.117 3.37 3.242c-1.055 1-1.46 2.383-1.21 3.676l-.016.012-.672.636a1.348 1.348 0 000 1.98c.343.325.812.458 1.257.395.063.235.192.454.387.637.262.246.594.383.938.406.023.325.168.641.43.887.261.246.593.383.937.406.023.325.168.641.43.887a1.545 1.545 0 001.945.125l.328.313a1.556 1.556 0 002.105 0c.262-.25.407-.563.43-.883.34-.028.672-.16.934-.406.261-.247.402-.563.43-.887.335-.024.66-.16.917-.403.204-.191.336-.425.395-.668a1.54 1.54 0 001.234-.398 1.341 1.341 0 000-1.98l-.593-.563.113-.418a3.802 3.802 0 00-.367-2.887c-.735-1.304-2.16-2.101-3.692-2.101H9.016c-.047 0-.094-.004-.141-.004zm4.375 5.457l.485.48a.64.64 0 00.101.079l.68.644c.18.164.18.438 0 .606a.47.47 0 01-.64 0L12.065 8.19a.531.531 0 00-.726 0l-.012.012a.46.46 0 000 .684l.887.843c.18.165.18.438 0 .606a.471.471 0 01-.594.039.536.536 0 00-.672.047.463.463 0 00-.043.637.413.413 0 01-.039.566.483.483 0 01-.601.035.536.536 0 00-.68.035.469.469 0 00-.043.645.42.42 0 01-.04.574.485.485 0 01-.651 0l-.32-.305.085-.078a1.348 1.348 0 000-1.98 1.522 1.522 0 00-.937-.406 1.366 1.366 0 00-.43-.887 1.5 1.5 0 00-.938-.406 1.366 1.366 0 00-.43-.887 1.54 1.54 0 00-1.257-.399 1.434 1.434 0 00-.387-.636 1.525 1.525 0 00-1.101-.407c-.11-.925.21-1.886.96-2.593a3.458 3.458 0 012.583-.922l-1.098.789a1.505 1.505 0 00-.293 2.18c.535.668 1.527.8 2.219.296l1.347-.968h1.442zm-6.41-2.852l2.223-1.605h.484c.035 0 .066 0 .102.004H10.03c1.192 0 2.274.62 2.82 1.594.352.62.458 1.34.301 2.023l-2.21-2.176a.5.5 0 00-.352-.144H8.695a.494.494 0 00-.293.093L6.926 5.465a.647.647 0 01-.86-.117.505.505 0 01.102-.739zm1.082 6.625a.474.474 0 01.64.004.414.414 0 010 .606l-.671.633a.47.47 0 01-.64 0 .407.407 0 010-.606zm-.727-.687l-.671.637a.47.47 0 01-.641 0 .406.406 0 01-.012-.594l.012-.012.672-.633.008-.011a.477.477 0 01.632.011.409.409 0 010 .602zm-1.367-1.29l-.672.634-.011.011a.472.472 0 01-.63-.011.407.407 0 010-.606l.673-.633a.47.47 0 01.64 0 .41.41 0 01.008.594zM3.512 8.224l-.672.636a.47.47 0 01-.64 0 .414.414 0 010-.605l.671-.637a.47.47 0 01.64 0 .413.413 0 010 .606zm0 0" fill="#ddd"/></svg>
